svgs/stack.svg

<svg width="192" height="192" viewBox="0 0 192 192" fill="none" xmlns="http://www.w3.org/2000/svg">
<path d="M143.954 110.018L157.227 120.306C157.745 120.707 157.745 121.486 157.227 121.887L95.4274 169.788C95.0631 170.071 94.5523 170.071 94.188 169.788L32.3883 121.887C31.8706 121.486 31.8706 120.707 32.3883 120.306L45.4416 110.188M45.4416 85.0918L32.3883 95.2094C31.8706 95.6107 31.8706 96.3892 32.3883 96.7906L94.188 144.692C94.5523 144.974 95.0631 144.974 95.4274 144.692L157.227 96.7906C157.745 96.3893 157.745 95.6107 157.227 95.2094L143.954 84.9215M32.3883 70.113L94.188 22.2118C94.5523 21.9294 95.0631 21.9294 95.4274 22.2118L157.227 70.113C157.745 70.5143 157.745 71.2928 157.227 71.6941L95.4274 119.595C95.0631 119.878 94.5523 119.878 94.188 119.595L32.3883 71.6941C31.8706 71.2928 31.8706 70.5143 32.3883 70.113Z" stroke="black" stroke-width="12" stroke-linecap="round" stroke-linejoin="round"/>
</svg>

<svg width="192" height="192" viewBox="0 0 192 192" fill="none" xmlns="http://www.w3.org/2000/svg"><path d="m143.954 110.018 13.273 10.288a.998.998 0 0 1 0 1.581l-61.8 47.901a1.01 1.01 0 0 1-1.239 0l-61.8-47.901a.999.999 0 0 1 0-1.581l13.054-10.118m0-25.096L32.388 95.209a.999.999 0 0 0 0 1.582l61.8 47.901c.364.282.875.282 1.24 0l61.799-47.901a.999.999 0 0 0 0-1.582l-13.273-10.288M32.388 70.113l61.8-47.901a1.012 1.012 0 0 1 1.24 0l61.799 47.901a.999.999 0 0 1 0 1.581l-61.8 47.901a1.01 1.01 0 0 1-1.239 0l-61.8-47.9a.999.999 0 0 1 0-1.582Z" stroke="#000" stroke-width="12" stroke-linecap="round" stroke-linejoin="round"/></svg>
